src/icons/0060_papers_a.svg

<svg data-name="Layer 1" xmlns="http://www.w3.org/2000/svg" viewBox="0 0 48 48"><path d="M41.9 9.9l-8.8-8.8A3.12 3.12 0 0030.6 0H14.2A2.56 2.56 0 0012 2v5H7a2.57 2.57 0 00-2 2v37a2.24 2.24 0 002 2h26a2.07 2.07 0 002-2v-5h6.1a2.06 2.06 0 001.9-2V12a2.92 2.92 0 00-1.1-2.1zM31 3.2l9 8.8h-9zM32 45H8V10h4v29a2.25 2.25 0 002.1 2H32zm8-7H15V3h13v9a2.77 2.77 0 003.1 3H40z"/></svg>

<svg id="Layer_1" data-name="Layer 1" xmlns="http://www.w3.org/2000/svg" viewBox="0 0 48 48"><title>0060_papers_a</title><path d="M41.9,9.9,33.1,1.1A3.12,3.12,0,0,0,30.6,0H14.2A2.56,2.56,0,0,0,12,2V7H7A2.57,2.57,0,0,0,5,9V46a2.24,2.24,0,0,0,2,2H33a2.07,2.07,0,0,0,2-2V41h6.1A2.06,2.06,0,0,0,43,39V12A2.92,2.92,0,0,0,41.9,9.9ZM31,3.2,40,12H31ZM32,45H8V10h4V39a2.25,2.25,0,0,0,2.1,2H32Zm8-7H15V3H28v9a2.77,2.77,0,0,0,3.1,3H40Z"/></svg>
